icons/snupps.svg

<?xml version="1.0" encoding="UTF-8" standalone="no"?>
<svg width="256px" height="301px" viewBox="0 0 256 301" version="1.1" xmlns="http://www.w3.org/2000/svg" xmlns:xlink="http://www.w3.org/1999/xlink" preserveAspectRatio="xMidYMid">
    <g>
        <path d="M256,128 C256,165.708543 248.201005,211.859296 240.884422,225.929648 C237.18593,233.085427 232.924623,237.909548 226.01005,240.964824 C220.462312,243.457286 210.81407,246.753769 203.256281,248.281407 C195.698492,249.889447 165.547739,255.919598 165.547739,255.919598 L165.547739,297.326633 L165.547739,297.326633 C165.467337,299.336683 163.859296,301.025126 161.768844,301.025126 C160.964824,301.025126 160.160804,300.703518 159.59799,300.301508 L159.59799,300.301508 L90.2110553,255.919598 C90.2110553,255.919598 60.3015075,250.130653 52.7437186,248.361809 C45.1055276,246.512563 35.6180905,243.457286 30.1507538,240.964824 C23.2361809,237.909548 18.9748744,233.005025 15.2763819,225.929648 C11.2562814,218.291457 7.15577889,201.246231 4.18090452,181.145729 L154.291457,188.140704 C160.562814,188.140704 165.628141,183.075377 165.628141,176.80402 C165.628141,171.095477 161.447236,166.351759 155.979899,165.547739 L8.92462312,144.241206 C3.85929648,143.115578 0.0804020101,138.613065 0.0804020101,133.226131 C0,131.457286 0,129.768844 0,128 C0,90.2914573 7.87939698,44.1407035 15.1959799,30.0703518 C18.8944724,22.9145729 23.2361809,18.2512563 30.0703518,15.0351759 C51.5376884,4.90452261 95.5979899,0 128,0 C172.221106,0 210.331658,8.12060302 225.929648,15.0351759 C232.844221,18.0904523 237.105528,22.9949749 240.80402,30.0703518 C244.743719,37.7085427 248.844221,54.6733668 251.819095,74.6934673 L101.708543,67.6984925 C95.4371859,67.6984925 90.3718593,72.7638191 90.3718593,79.0351759 C90.3718593,84.7437186 94.5527638,89.4874372 100.020101,90.2914573 C100.020101,90.2914573 246.592965,111.517588 246.914573,111.59799 C251.658291,112.562814 255.356784,116.582915 255.839196,121.487437 C255.919598,121.487437 256,126.39196 256,128 L256,128 Z" fill="#FF6C0C"></path>
    </g>
</svg>

<svg xmlns="http://www.w3.org/2000/svg" viewBox="0 0 256 301.025">
  <path fill="#ff6c0c" d="M256 128c0 37.709-7.799 83.86-15.116 97.93-3.698 7.155-7.96 11.98-14.874 15.035-5.548 2.492-15.196 5.789-22.754 7.316-7.558 1.608-37.708 7.639-37.708 7.639v41.407c-.08 2.01-1.689 3.698-3.78 3.698-.803 0-1.607-.321-2.17-.723L90.211 255.92s-29.91-5.79-37.467-7.558c-7.638-1.85-17.126-4.905-22.593-7.397-6.915-3.055-11.176-7.96-14.875-15.035-4.02-7.639-8.12-24.684-11.095-44.784l150.11 6.995a11.324 11.324 0 0 0 11.337-11.337c0-5.709-4.18-10.452-9.648-11.256L8.925 144.24C3.859 143.116.08 138.613.08 133.226 0 131.457 0 129.77 0 128c0-37.709 7.88-83.86 15.196-97.93 3.698-7.155 8.04-11.819 14.874-15.035C51.538 4.905 95.598 0 128 0c44.221 0 82.332 8.12 97.93 15.035 6.914 3.055 11.176 7.96 14.874 15.035 3.94 7.639 8.04 24.603 11.015 44.623l-150.11-6.995a11.324 11.324 0 0 0-11.337 11.337c0 5.709 4.18 10.452 9.648 11.256 0 0 146.573 21.227 146.895 21.307 4.743.965 8.442 4.985 8.924 9.89.08 0 .161 4.904.161 6.512z"/>
</svg>
